img/info-seis.svg

<?xml version="1.0" encoding="UTF-8" standalone="no"?>
<svg width="99px" height="66px" viewBox="0 0 99 66" version="1.1" xmlns="http://www.w3.org/2000/svg" xmlns:xlink="http://www.w3.org/1999/xlink" xmlns:sketch="http://www.bohemiancoding.com/sketch/ns">
    <!-- Generator: Sketch 3.5.1 (25234) - http://www.bohemiancoding.com/sketch -->
    <title>info-seis</title>
    <desc>Created with Sketch.</desc>
    <defs></defs>
    <g id="Page-1" stroke="none" stroke-width="1" fill="none" fill-rule="evenodd" sketch:type="MSPage">
        <g id="info-seis" sketch:type="MSLayerGroup" fill="#FFFFFF">
            <path d="M93.98,25.23 L83.4,30.23 C82.6181782,29.8211702 71.2527818,31.6882232 66.02,33.91 C63.6890391,34.9252262 61.453479,36.1467523 59.34,37.56 L51.88,14.83 C51.6650258,14.3379755 51.2383287,13.9701332 50.72,13.83 L34,11.39 L34,0.23 L34,0.03 L29.3,0.03 L29.3,10.49 L12.78,7.95 C12.1660877,8.03009176 11.6486736,8.44711204 11.44,9.03 L0.05,43.61 C-0.00361874238,43.836875 -0.00361874238,44.073125 0.05,44.3 C0.0943978333,44.517195 0.179201794,44.7241166 0.3,44.91 C0.392356636,45.0363317 0.503668343,45.1476434 0.63,45.24 C0.63,45.3 5.63,50.87 12.81,50.87 C19.99,50.87 24.91,45.29 24.93,45.23 C25.1015336,45.1056918 25.2475249,44.9495151 25.36,44.77 C25.4730127,44.5688533 25.5476154,44.3484362 25.58,44.12 C25.600804,43.9146999 25.5804053,43.7073123 25.52,43.51 L15.04,11.35 L29.29,13.35 L29.29,61.04 L20.02,61.04 L20.02,65.74 L43.02,65.74 L43.02,61.04 L33.98,61.04 L33.98,14.26 L48.52,16.49 L37.75,49.39 C37.6963813,49.616875 37.6963813,49.853125 37.75,50.08 C37.7934633,50.2974782 37.8783373,50.5045708 38,50.69 C38.0919834,50.8166509 38.2033491,50.9280166 38.33,51.02 C38.33,51.08 43.33,56.65 50.51,56.65 C57.69,56.65 62.64,51.07 62.65,51.05 C62.8215336,50.9256918 62.9675249,50.7695151 63.08,50.59 C63.1921765,50.3884818 63.2667254,50.1682235 63.3,49.94 C63.3173629,49.7193742 63.2866568,49.4976077 63.21,49.29 L60.95,42.4 C62.6686331,41.6761947 64.4448331,41.0975081 66.26,40.67 C68.0751669,40.2424919 63.39,45.67 64.48,49.19 C64.7434823,50.1183704 65.3912289,50.8898439 66.26,51.31 C66.6359364,49.352942 67.3391239,47.4732676 68.34,45.75 C69.0073176,44.5646423 69.8810448,43.508042 70.92,42.63 C71.1025864,42.5012369 71.3320983,42.4581288 71.5489626,42.5118651 C71.765827,42.5656014 71.9486583,42.710883 72.05,42.91 C72.3186472,43.3487963 72.210497,43.9198295 71.8,44.23 C70.9530119,44.9900737 70.2338226,45.8814633 69.67,46.87 C68.6452395,48.6714436 67.966882,50.6488554 67.67,52.7 C67.9791731,53.3486265 68.4303119,53.9193854 68.99,54.37 C69.2750598,54.5947655 69.6269926,54.717942 69.99,54.72 C70.2157598,53.2799993 70.6538602,51.881448 71.29,50.57 C71.764637,49.5279812 72.4449135,48.592601 73.29,47.82 C73.4644162,47.642586 73.7146239,47.5617725 73.9598658,47.6036431 C74.2051078,47.6455137 74.4143286,47.8047661 74.52,48.03 C74.7760852,48.4480131 74.691395,48.9900307 74.32,49.31 C73.6903312,49.9464667 73.1760181,50.6874836 72.8,51.5 C72.2996183,52.5393628 71.9462326,53.6432724 71.75,54.78 C72.0529725,55.3867869 72.5489471,55.8757264 73.16,56.17 C75.42,56.86 76.63,54.53 76.63,54.53 L78.15,51.53 C79.4327445,51.6796111 80.7326564,51.5184083 81.94,51.06 C86.17,49.22 90.05,42.6 90.78,41.29 L98.64,37.58 L93.98,25.23 Z M21.98,42.58 L3.62,42.58 L12.79,13.85 L21.98,42.58 Z M41.33,48.33 L50.52,19.6 L56.8,39.29 C54.7991263,40.7590245 52.8951677,42.3556776 51.1,44.07 C49.3048323,45.7843224 49.78,45.58 50.45,46.52 C51.32,47.76 52.3,46.93 52.93,46.6 C53.56,46.27 55.15,45.2 58.21,43.68 L59.69,48.31 L41.33,48.31 L41.33,48.33 Z" id="Shape" sketch:type="MSShapeGroup"></path>
        </g>
    </g>
</svg>

<svg width="99" height="66" viewBox="0 0 99 66" xmlns="http://www.w3.org/2000/svg"><title>info-seis</title><path d="M93.98 25.23l-10.58 5c-.782-.409-12.147 1.458-17.38 3.68a42.67 42.67 0 0 0-6.68 3.65l-7.46-22.73a1.77 1.77 0 0 0-1.16-1L34 11.39V.03h-4.7v10.46L12.78 7.95a1.65 1.65 0 0 0-1.34 1.08L.05 43.61a1.5 1.5 0 0 0 0 .69c.044.217.13.424.25.61.092.126.204.238.33.33 0 .06 5 5.63 12.18 5.63s12.1-5.58 12.12-5.64a1.65 1.65 0 0 0 .43-.46 1.86 1.86 0 0 0 .22-.65c.02-.205 0-.413-.06-.61L15.04 11.35l14.25 2v47.69h-9.27v4.7h23v-4.7h-9.04V14.26l14.54 2.23-10.77 32.9a1.5 1.5 0 0 0 0 .69c.043.217.128.425.25.61.092.127.203.238.33.33 0 .06 5 5.63 12.18 5.63s12.13-5.58 12.14-5.6a1.65 1.65 0 0 0 .43-.46 1.9 1.9 0 0 0 .22-.65 1.53 1.53 0 0 0-.09-.65l-2.26-6.89a33.42 33.42 0 0 1 5.31-1.73c1.815-.428-2.87 5-1.78 8.52a3.38 3.38 0 0 0 1.78 2.12 17.73 17.73 0 0 1 2.08-5.56 11.42 11.42 0 0 1 2.58-3.12.77.77 0 0 1 1.13.28 1 1 0 0 1-.25 1.32 10.61 10.61 0 0 0-2.13 2.64 16.6 16.6 0 0 0-2 5.83c.31.649.76 1.22 1.32 1.67a1.63 1.63 0 0 0 1 .35 14.74 14.74 0 0 1 1.3-4.15 8.5 8.5 0 0 1 2-2.75.76.76 0 0 1 1.23.21 1 1 0 0 1-.2 1.28 7.73 7.73 0 0 0-1.52 2.19 12.44 12.44 0 0 0-1.05 3.28 3.06 3.06 0 0 0 1.41 1.39c2.26.69 3.47-1.64 3.47-1.64l1.52-3a8.05 8.05 0 0 0 3.79-.47c4.23-1.84 8.11-8.46 8.84-9.77l7.86-3.71-4.66-12.35zm-72 17.35H3.62l9.17-28.73 9.19 28.73zm19.35 5.75l9.19-28.73 6.28 19.69a57.68 57.68 0 0 0-5.7 4.78c-1.795 1.714-1.32 1.51-.65 2.45.87 1.24 1.85.41 2.48.08.63-.33 2.22-1.4 5.28-2.92l1.48 4.63H41.33v.02z" fill="#FFF" fill-rule="evenodd"/></svg>
